public/static/img/assets/status_wait.svg

<svg width="60" height="60" viewBox="0 0 60 60" fill="none" xmlns="http://www.w3.org/2000/svg">
<g clip-path="url(#clip0_523_8048)">
<path fill-rule="evenodd" clip-rule="evenodd" d="M8.7868 51.2132C3.16071 45.5871 0 37.9565 0 30C0 22.0435 3.16071 14.4129 8.7868 8.7868C14.4129 3.16071 22.0435 0 30 0C37.9565 0 45.5871 3.16071 51.2132 8.7868C56.8393 14.4129 60 22.0435 60 30C60 37.9565 56.8393 45.5871 51.2132 51.2132C45.5871 56.8393 37.9565 60 30 60C22.0435 60 14.4129 56.8393 8.7868 51.2132ZM32.2494 43.524C32.2494 42.2342 31.2032 41.1886 29.9125 41.1886C28.6219 41.1886 27.5757 42.2342 27.5757 43.524C27.5757 44.8138 28.6219 45.8594 29.9125 45.8594C31.2031 45.8594 32.2494 44.8138 32.2494 43.524ZM23.3514 39.3922C23.3514 37.8543 22.104 36.6077 20.5652 36.6077C19.0264 36.6077 17.779 37.8543 17.779 39.3922C17.779 40.93 19.0264 42.1767 20.5652 42.1767C22.104 42.1767 23.3514 40.93 23.3514 39.3922ZM41.1474 39.9311C41.1474 38.8893 40.3023 38.0448 39.2599 38.0448C38.2175 38.0448 37.3725 38.8893 37.3725 39.9311C37.3725 40.9729 38.2175 41.8174 39.2599 41.8174C40.3023 41.8174 41.1474 40.9729 41.1474 39.9311ZM20.1159 30.6345C20.1159 28.8238 18.6471 27.356 16.8353 27.356C15.0235 27.356 13.5547 28.8238 13.5547 30.6345C13.5547 32.4452 15.0235 33.913 16.8353 33.913C18.6471 33.913 20.1159 32.4452 20.1159 30.6345ZM44.0235 30.5446C44.0235 29.7757 43.3998 29.1525 42.6303 29.1525V29.1524C41.861 29.1524 41.2373 29.7757 41.2373 30.5447C41.2373 31.3136 41.861 31.9369 42.6303 31.9369C43.3998 31.9369 44.0235 31.3136 44.0235 30.5446ZM24.2502 21.2929C24.2502 19.2342 22.5803 17.5653 20.5203 17.5653C18.4603 17.5653 16.7903 19.2342 16.7903 21.2929C16.7903 23.3516 18.4603 25.0205 20.5203 25.0205C22.5803 25.0205 24.2502 23.3516 24.2502 21.2929ZM34.5862 17.8348C34.5862 15.2552 32.4937 13.1641 29.9125 13.1641C27.3313 13.1641 25.2389 15.2552 25.2388 17.8348C25.2388 20.4144 27.3313 22.5056 29.9125 22.5056C32.4937 22.5056 34.5862 20.4144 34.5862 17.8348ZM39.8891 21.3828C39.8891 20.8619 39.4665 20.4396 38.9453 20.4396C38.4241 20.4396 38.0016 20.8619 38.0016 21.3828C38.0016 21.9037 38.4241 22.3259 38.9453 22.3259C39.4665 22.3259 39.8891 21.9037 39.8891 21.3828Z" fill="#FFA346"/>
</g>
<defs>
<clipPath id="clip0_523_8048">
<rect width="60" height="60" fill="white"/>
</clipPath>
</defs>
</svg>

<svg width="60" height="60" fill="none" xmlns="http://www.w3.org/2000/svg"><g clip-path="url(#a)"><path fill-rule="evenodd" clip-rule="evenodd" d="M8.787 51.213A30 30 0 1 1 51.213 8.787 30 30 0 0 1 8.787 51.213Zm23.462-7.689a2.336 2.336 0 1 0-4.672.001 2.336 2.336 0 0 0 4.672-.001Zm-8.898-4.132a2.785 2.785 0 0 0-2.786-2.784 2.785 2.785 0 1 0 2.786 2.784Zm17.796.54a1.887 1.887 0 1 0-3.773 0 1.887 1.887 0 0 0 3.773 0Zm-21.031-9.298a3.28 3.28 0 0 0-3.28-3.278 3.28 3.28 0 1 0 3.28 3.278Zm23.907-.09a1.393 1.393 0 1 0-2.787 0 1.393 1.393 0 0 0 2.787 0Zm-19.773-9.25a3.729 3.729 0 0 0-3.73-3.728 3.729 3.729 0 1 0 3.73 3.728Zm10.336-3.458a4.67 4.67 0 0 0-4.673-4.67 4.672 4.672 0 0 0-4.674 4.67c0 2.58 2.092 4.67 4.674 4.67a4.672 4.672 0 0 0 4.673-4.67Zm5.303 3.548a.944.944 0 1 0-1.887 0 .944.944 0 0 0 1.887 0Z" fill="#FFA346"/></g><defs><clipPath id="a"><path fill="#fff" d="M0 0h60v60H0z"/></clipPath></defs></svg>
